X:51
T:Scotts Reel. LIT.051
M:2/4
Q:1/4=120
L:1/8
B:Wm. Litten MS, 1802
Z:Village Music Project 2017 Anne Wride
K:Em
B | GA/B/ EB | GE BG | FG/A/ DA | FD AF | GA/B/ EB | GE BG | FG/A/ DF | E3 :|
F | G2 GB | d>e dB | A>B A>G | FD AF | Ee ef | gf ed  | Beed e2 de/f/ |
g2 d>c | B>c d>B | AB AG | FD AF | Ee ef | gf ed | Bc/d/ AF | E3 |]

